dist/static/img/shop/03.svg

<svg width="48" height="48" viewBox="0 0 48 48" fill="none" xmlns="http://www.w3.org/2000/svg">
<path d="M6 4.5H5.25C5.05109 4.5 4.86032 4.57902 4.71967 4.71967C4.57902 4.86032 4.5 5.05109 4.5 5.25C4.5 5.44891 4.57902 5.63968 4.71967 5.78033C4.86032 5.92098 5.05109 6 5.25 6H6C6.19891 6 6.38968 5.92098 6.53033 5.78033C6.67098 5.63968 6.75 5.44891 6.75 5.25C6.75 5.05109 6.67098 4.86032 6.53033 4.71967C6.38968 4.57902 6.19891 4.5 6 4.5Z" fill="white"/>
<path d="M9.75 4.5H9C8.80109 4.5 8.61032 4.57902 8.46967 4.71967C8.32902 4.86032 8.25 5.05109 8.25 5.25C8.25 5.44891 8.32902 5.63968 8.46967 5.78033C8.61032 5.92098 8.80109 6 9 6H9.75C9.94891 6 10.1397 5.92098 10.2803 5.78033C10.421 5.63968 10.5 5.44891 10.5 5.25C10.5 5.05109 10.421 4.86032 10.2803 4.71967C10.1397 4.57902 9.94891 4.5 9.75 4.5Z" fill="white"/>
<path d="M13.5 4.5H12.75C12.5511 4.5 12.3603 4.57902 12.2197 4.71967C12.079 4.86032 12 5.05109 12 5.25C12 5.44891 12.079 5.63968 12.2197 5.78033C12.3603 5.92098 12.5511 6 12.75 6H13.5C13.6989 6 13.8897 5.92098 14.0303 5.78033C14.171 5.63968 14.25 5.44891 14.25 5.25C14.25 5.05109 14.171 4.86032 14.0303 4.71967C13.8897 4.57902 13.6989 4.5 13.5 4.5Z" fill="white"/>
<path d="M46.4625 42.0375L43.425 39H44.25C44.8462 38.9982 45.4175 38.7606 45.839 38.339C46.2606 37.9174 46.4982 37.3462 46.5 36.75V3.75C46.4982 3.15381 46.2606 2.58255 45.839 2.16098C45.4175 1.73941 44.8462 1.50178 44.25 1.5H3.75C3.15381 1.50178 2.58255 1.73941 2.16098 2.16098C1.73941 2.58255 1.50178 3.15381 1.5 3.75V36.75C1.50178 37.3462 1.73941 37.9174 2.16098 38.339C2.58255 38.7606 3.15381 38.9982 3.75 39H33.9375L34.59 42.6975C34.6115 42.8331 34.6707 42.9599 34.7609 43.0633C34.8511 43.1668 34.9686 43.2428 35.1 43.2825C35.2313 43.3238 35.3714 43.3281 35.5051 43.295C35.6387 43.262 35.7606 43.1927 35.8575 43.095L37.4475 41.505L42.2175 46.2825C42.3597 46.4219 42.5509 46.5 42.75 46.5C42.9491 46.5 43.1403 46.4219 43.2825 46.2825L46.4625 43.095C46.5322 43.0266 46.5874 42.9449 46.6248 42.8547C46.6622 42.7645 46.681 42.6676 46.68 42.57C46.681 42.4712 46.6623 42.3733 46.6249 42.2818C46.5876 42.1904 46.5323 42.1073 46.4625 42.0375ZM3 3.75C3 3.55109 3.07902 3.36032 3.21967 3.21967C3.36032 3.07902 3.55109 3 3.75 3H44.25C44.4489 3 44.6397 3.07902 44.7803 3.21967C44.921 3.36032 45 3.55109 45 3.75V7.5H3V3.75ZM33.8625 32.8125C33.7437 32.7914 33.6216 32.7995 33.5066 32.8361C33.3916 32.8727 33.2873 32.9367 33.2025 33.0225C33.1182 33.1083 33.0552 33.2128 33.0187 33.3274C32.9822 33.4421 32.9732 33.5637 32.9925 33.6825L33.6675 37.5H3.75C3.55109 37.5 3.36032 37.421 3.21967 37.2803C3.07902 37.1397 3 36.9489 3 36.75V9H45V36.75C45 36.9489 44.921 37.1397 44.7803 37.2803C44.6397 37.421 44.4489 37.5 44.25 37.5H41.925L41.6925 37.2675L43.2825 35.67C43.3793 35.5741 43.4475 35.4531 43.4793 35.3206C43.5111 35.1881 43.5053 35.0494 43.4625 34.92C43.4219 34.7883 43.3459 34.6704 43.2427 34.5791C43.1395 34.4878 43.0131 34.4267 42.8775 34.4025L33.8625 32.8125ZM42.75 44.6925L37.98 39.915C37.8381 39.7751 37.6467 39.6969 37.4475 39.6975C37.3487 39.6965 37.2508 39.7152 37.1593 39.7526C37.0679 39.7899 36.9848 39.8451 36.915 39.915L35.8125 41.0175L34.6575 34.4775L41.1975 35.6325L40.095 36.735C39.9569 36.878 39.879 37.0687 39.8775 37.2675C39.879 37.4641 39.9571 37.6524 40.095 37.7925L41.07 38.7675L41.0925 38.79L44.8725 42.57L42.75 44.6925Z" fill="white"/>
<path d="M26.25 16.5001H24C23.8011 16.5001 23.6103 16.5791 23.4697 16.7198C23.329 16.8604 23.25 17.0512 23.25 17.2501C23.25 17.449 23.329 17.6398 23.4697 17.7804C23.6103 17.9211 23.8011 18.0001 24 18.0001H25.29C25.1259 18.2862 24.8718 18.51 24.5672 18.6365C24.2626 18.7631 23.9247 18.7853 23.6061 18.6997C23.2876 18.614 23.0064 18.4254 22.8063 18.1632C22.6062 17.901 22.4985 17.5799 22.5 17.2501V16.5001C22.501 15.7456 22.3121 15.0031 21.9506 14.3409C21.5892 13.6786 21.0668 13.1181 20.4317 12.7109C19.7966 12.3036 19.0691 12.0629 18.3165 12.0107C17.5638 11.9586 16.8102 12.0968 16.125 12.4126C15.4398 12.0968 14.6862 11.9586 13.9335 12.0107C13.1809 12.0629 12.4534 12.3036 11.8183 12.7109C11.1832 13.1181 10.6608 13.6786 10.2994 14.3409C9.93791 15.0031 9.74898 15.7456 9.75 16.5001H6.75C6.55109 16.5001 6.36032 16.5791 6.21967 16.7198C6.07902 16.8604 6 17.0512 6 17.2501V30.7501C6 31.7447 6.39509 32.6985 7.09835 33.4017C7.80161 34.105 8.75544 34.5001 9.75 34.5001H24C24.7956 34.5001 25.5587 34.184 26.1213 33.6214C26.6839 33.0588 27 32.2957 27 31.5001V17.2501C27 17.0512 26.921 16.8604 26.7803 16.7198C26.6397 16.5791 26.4489 16.5001 26.25 16.5001ZM18 13.5001C18.7956 13.5001 19.5587 13.8162 20.1213 14.3788C20.6839 14.9414 21 15.7044 21 16.5001H18.75C18.7476 15.41 18.3506 14.3577 17.6325 13.5376C17.7541 13.5173 17.8768 13.5048 18 13.5001ZM16.125 14.1751C16.4748 14.4535 16.7576 14.807 16.9523 15.2095C17.147 15.6119 17.2488 16.053 17.25 16.5001H15C15.0012 16.053 15.103 15.6119 15.2977 15.2095C15.4924 14.807 15.7752 14.4535 16.125 14.1751ZM14.25 13.5001C14.3732 13.5048 14.4959 13.5173 14.6175 13.5376C13.8994 14.3577 13.5024 15.41 13.5 16.5001H11.25C11.25 15.7044 11.5661 14.9414 12.1287 14.3788C12.6913 13.8162 13.4544 13.5001 14.25 13.5001ZM9.75 33.0001C9.15381 32.9983 8.58255 32.7607 8.16098 32.3391C7.7394 31.9175 7.50178 31.3463 7.5 30.7501V18.0001H9.75V19.5001C9.55109 19.5001 9.36032 19.5791 9.21967 19.7198C9.07902 19.8604 9 20.0512 9 20.2501C9 20.449 9.07902 20.6398 9.21967 20.7804C9.36032 20.9211 9.55109 21.0001 9.75 21.0001H11.25C11.4489 21.0001 11.6397 20.9211 11.7803 20.7804C11.921 20.6398 12 20.449 12 20.2501C12 20.0512 11.921 19.8604 11.7803 19.7198C11.6397 19.5791 11.4489 19.5001 11.25 19.5001V18.0001H17.25V19.5001C17.0511 19.5001 16.8603 19.5791 16.7197 19.7198C16.579 19.8604 16.5 20.0512 16.5 20.2501C16.5 20.449 16.579 20.6398 16.7197 20.7804C16.8603 20.9211 17.0511 21.0001 17.25 21.0001H18.75C18.9489 21.0001 19.1397 20.9211 19.2803 20.7804C19.421 20.6398 19.5 20.449 19.5 20.2501C19.5 20.0512 19.421 19.8604 19.2803 19.7198C19.1397 19.5791 18.9489 19.5001 18.75 19.5001V18.0001H21V31.5001C21.0021 32.0288 21.1472 32.5472 21.42 33.0001H9.75ZM25.5 31.5001C25.5 31.8979 25.342 32.2795 25.0607 32.5608C24.7794 32.8421 24.3978 33.0001 24 33.0001C23.6022 33.0001 23.2206 32.8421 22.9393 32.5608C22.658 32.2795 22.5 31.8979 22.5 31.5001V19.8301C22.9521 20.1048 23.471 20.2502 24 20.2502C24.529 20.2502 25.0479 20.1048 25.5 19.8301V31.5001Z" fill="white"/>
<path d="M30.75 18H41.25C41.4489 18 41.6397 17.921 41.7803 17.7803C41.921 17.6397 42 17.4489 42 17.25C42 17.0511 41.921 16.8603 41.7803 16.7197C41.6397 16.579 41.4489 16.5 41.25 16.5H30.75C30.5511 16.5 30.3603 16.579 30.2197 16.7197C30.079 16.8603 30 17.0511 30 17.25C30 17.4489 30.079 17.6397 30.2197 17.7803C30.3603 17.921 30.5511 18 30.75 18Z" fill="white"/>
<path d="M30.75 21H41.25C41.4489 21 41.6397 20.921 41.7803 20.7803C41.921 20.6397 42 20.4489 42 20.25C42 20.0511 41.921 19.8603 41.7803 19.7197C41.6397 19.579 41.4489 19.5 41.25 19.5H30.75C30.5511 19.5 30.3603 19.579 30.2197 19.7197C30.079 19.8603 30 20.0511 30 20.25C30 20.4489 30.079 20.6397 30.2197 20.7803C30.3603 20.921 30.5511 21 30.75 21Z" fill="white"/>
<path d="M30.75 24H41.25C41.4489 24 41.6397 23.921 41.7803 23.7803C41.921 23.6397 42 23.4489 42 23.25C42 23.0511 41.921 22.8603 41.7803 22.7197C41.6397 22.579 41.4489 22.5 41.25 22.5H30.75C30.5511 22.5 30.3603 22.579 30.2197 22.7197C30.079 22.8603 30 23.0511 30 23.25C30 23.4489 30.079 23.6397 30.2197 23.7803C30.3603 23.921 30.5511 24 30.75 24Z" fill="white"/>
<path d="M30.75 27H41.25C41.4489 27 41.6397 26.921 41.7803 26.7803C41.921 26.6397 42 26.4489 42 26.25C42 26.0511 41.921 25.8603 41.7803 25.7197C41.6397 25.579 41.4489 25.5 41.25 25.5H30.75C30.5511 25.5 30.3603 25.579 30.2197 25.7197C30.079 25.8603 30 26.0511 30 26.25C30 26.4489 30.079 26.6397 30.2197 26.7803C30.3603 26.921 30.5511 27 30.75 27Z" fill="white"/>
<path d="M42 29.25C42 29.0511 41.921 28.8603 41.7803 28.7197C41.6397 28.579 41.4489 28.5 41.25 28.5H30.75C30.5511 28.5 30.3603 28.579 30.2197 28.7197C30.079 28.8603 30 29.0511 30 29.25C30 29.4489 30.079 29.6397 30.2197 29.7803C30.3603 29.921 30.5511 30 30.75 30H41.25C41.4489 30 41.6397 29.921 41.7803 29.7803C41.921 29.6397 42 29.4489 42 29.25Z" fill="white"/>
</svg>

<svg width="48" height="48" viewBox="0 0 48 48" fill="none" xmlns="http://www.w3.org/2000/svg"><path d="M6 4.5h-.75a.75.75 0 000 1.5H6a.75.75 0 000-1.5zm3.75 0H9A.75.75 0 009 6h.75a.75.75 0 100-1.5zm3.75 0h-.75a.75.75 0 100 1.5h.75a.75.75 0 100-1.5z" fill="#fff"/><path d="M46.462 42.038L43.425 39h.825a2.257 2.257 0 002.25-2.25v-33a2.257 2.257 0 00-2.25-2.25H3.75A2.257 2.257 0 001.5 3.75v33A2.257 2.257 0 003.75 39h30.188l.652 3.697a.73.73 0 00.51.585.75.75 0 00.758-.187l1.59-1.59 4.77 4.777a.76.76 0 001.064 0l3.18-3.187a.727.727 0 00.218-.525.742.742 0 00-.218-.532zM3 3.75A.75.75 0 013.75 3h40.5a.75.75 0 01.75.75V7.5H3V3.75zm30.862 29.063a.744.744 0 00-.843.514.766.766 0 00-.026.355l.674 3.818H3.75a.75.75 0 01-.75-.75V9h42v27.75a.75.75 0 01-.75.75h-2.325l-.232-.233 1.59-1.597a.733.733 0 00.18-.75.75.75 0 00-.586-.517l-9.015-1.59zm8.888 11.88l-4.77-4.778a.755.755 0 00-.532-.218.742.742 0 00-.533.218l-1.102 1.102-1.156-6.54 6.54 1.156-1.102 1.102a.775.775 0 00-.218.532c.002.197.08.385.218.525l.975.975.023.023 3.78 3.78-2.123 2.123z" fill="#fff"/><path d="M26.25 16.5H24a.75.75 0 100 1.5h1.29a1.494 1.494 0 01-2.79-.75v-.75a4.494 4.494 0 00-6.375-4.087A4.494 4.494 0 009.75 16.5h-3a.75.75 0 00-.75.75v13.5a3.75 3.75 0 003.75 3.75H24a3 3 0 003-3V17.25a.75.75 0 00-.75-.75zm-8.25-3a3 3 0 013 3h-2.25a4.512 4.512 0 00-1.117-2.962c.121-.02.244-.033.367-.038zm-1.875.675A2.981 2.981 0 0117.25 16.5H15a2.982 2.982 0 011.125-2.325zM14.25 13.5c.123.005.246.017.367.038A4.512 4.512 0 0013.5 16.5h-2.25a3 3 0 013-3zM9.75 33a2.257 2.257 0 01-2.25-2.25V18h2.25v1.5a.75.75 0 100 1.5h1.5a.75.75 0 100-1.5V18h6v1.5a.75.75 0 100 1.5h1.5a.75.75 0 100-1.5V18H21v13.5a2.93 2.93 0 00.42 1.5H9.75zm15.75-1.5a1.5 1.5 0 11-3 0V19.83a2.889 2.889 0 003 0V31.5zM30.75 18h10.5a.75.75 0 100-1.5h-10.5a.75.75 0 100 1.5zm0 3h10.5a.75.75 0 100-1.5h-10.5a.75.75 0 100 1.5zm0 3h10.5a.75.75 0 100-1.5h-10.5a.75.75 0 100 1.5zm0 3h10.5a.75.75 0 100-1.5h-10.5a.75.75 0 100 1.5zM42 29.25a.75.75 0 00-.75-.75h-10.5a.75.75 0 100 1.5h10.5a.75.75 0 00.75-.75z" fill="#fff"/></svg>
